public/twitter-mobile.svg

<svg width="24" height="24" viewBox="0 0 24 24" fill="none" xmlns="http://www.w3.org/2000/svg">
<circle cx="12" cy="12.0005" r="11.7" fill="#075430" stroke="white" stroke-width="0.6"/>
<path d="M12.741 11.312L16.02 7.50098H15.243L12.3965 10.81L10.1225 7.50098H7.5L10.938 12.5045L7.5 16.501H8.277L11.283 13.0065L13.684 16.501H16.3065L12.741 11.312ZM11.677 12.5485L11.3285 12.0505L8.557 8.08548H9.75L11.987 11.2855L12.3355 11.7835L15.243 15.9425H14.0495L11.677 12.5485Z" fill="white"/>
</svg>

<svg xmlns="http://www.w3.org/2000/svg" width="24" height="24" fill="none" viewBox="0 0 24 24"><circle cx="12" cy="12.001" r="11.7" fill="#075430" stroke="#fff" stroke-width=".6"/><path fill="#fff" d="m12.741 11.312 3.279-3.811h-.777l-2.847 3.309-2.274-3.309H7.5l3.438 5.004L7.5 16.5h.777l3.006-3.495 2.401 3.495h2.623zm-1.064 1.237-.348-.498-2.772-3.966H9.75l2.237 3.2.348.498 2.908 4.16h-1.194z"/></svg>
